X:194
T:Munster Buttermilk
R:jig
M:6/8
L:1/8
K:Gmaj
gfg age|d2B BAB|d2B BAB|dBG G2d|
gfg age|d2B BAB|dBG GAB|A3 G3:|
|:d2e g2a|b2b bag|a2a age|gfg age|
d2e g2a|b2b bag|age dgb|a3 g3:||

